Numix-GalliumOS/16/categories/applications-geography.svg

<?xml version="1.0" encoding="UTF-8" standalone="no"?>
<svg
   xmlns:dc="http://purl.org/dc/elements/1.1/"
   xmlns:cc="http://creativecommons.org/ns#"
   xmlns:rdf="http://www.w3.org/1999/02/22-rdf-syntax-ns#"
   xmlns:svg="http://www.w3.org/2000/svg"
   xmlns="http://www.w3.org/2000/svg"
   xmlns:sodipodi="http://sodipodi.sourceforge.net/DTD/sodipodi-0.dtd"
   xmlns:inkscape="http://www.inkscape.org/namespaces/inkscape"
   width="16"
   height="16"
   viewBox="0 0 16 16"
   id="svg2"
   version="1.1"
   inkscape:version="0.91 r"
   sodipodi:docname="applications-geography.svg">
  <metadata
     id="metadata22">
    <rdf:RDF>
      <cc:Work
         rdf:about="">
        <dc:format>image/svg+xml</dc:format>
        <dc:type
           rdf:resource="http://purl.org/dc/dcmitype/StillImage" />
      </cc:Work>
    </rdf:RDF>
  </metadata>
  <sodipodi:namedview
     pagecolor="#ffffff"
     bordercolor="#666666"
     borderopacity="1"
     objecttolerance="10"
     gridtolerance="10"
     guidetolerance="10"
     inkscape:pageopacity="0"
     inkscape:pageshadow="2"
     inkscape:window-width="1920"
     inkscape:window-height="1056"
     id="namedview20"
     showgrid="false"
     inkscape:zoom="14.75"
     inkscape:cx="8"
     inkscape:cy="8"
     inkscape:window-x="0"
     inkscape:window-y="24"
     inkscape:window-maximized="1"
     inkscape:current-layer="svg2" />
  <defs
     id="defs4">
    <clipPath
       id="clip1">
      <path
         d="M 2.082031 2.082031 L 13.75 2.082031 L 13.75 13.75 L 2.082031 13.75 Z "
         id="path7" />
    </clipPath>
    <clipPath
       id="clip2">
      <path
         d="M 7.917969 13.503906 C 11.019531 13.503906 13.539062 10.976562 13.539062 7.875 C 13.539062 4.792969 11.019531 2.261719 7.917969 2.261719 C 4.832031 2.261719 2.292969 4.792969 2.292969 7.875 C 2.292969 10.976562 4.832031 13.503906 7.917969 13.503906 Z "
         id="path10" />
    </clipPath>
  </defs>
  <path
     style="fill:#78b2a3"
     d="M 7.9981051,2 C 6.4066945,2 4.9062198,2.6253946 3.7694983,3.7586861 2.628986,4.8957676 2,6.3967153 2,7.9886294 2,11.301326 4.6902428,14 7.9981051,14 11.309757,14 14,11.301326 14,7.9886294 14,4.6873025 11.309757,2 7.9981051,2 Z m 0,0.2463674 c 3.1714569,0 5.7556049,2.5773848 5.7556049,5.742262 0,3.1800386 -2.584148,5.7650036 -5.7556049,5.7650036 -3.1676658,0 -5.7480266,-2.584965 -5.7480266,-5.7650036 0,-1.5236887 0.5986743,-2.963993 1.6899279,-4.0518003 1.0912537,-1.0915982 2.534891,-1.6904617 4.0580987,-1.6904617 z"
     id="path12"
     inkscape:connector-curvature="0" />
  <g
     style="clip-rule:nonzero"
     id="g14"
     clip-path="url(#clip1)"
     transform="matrix(0.97000322,0,0,0.97030958,0.3214395,0.31711933)">
    <g
       id="g16"
       clip-path="url(#clip2)">
      <path
         style="fill:#78b2a3"
         d="m 6.011719,2.777344 c -0.03125,0 -0.0625,0.011718 -0.09375,0.03125 0.074219,-0.023438 0.109375,-0.03125 0.09375,-0.03125 M 7.859375,3.136719 7.875,2.867188 7.589844,2.886719 l 0.039062,0.25 0.230469,0 M 4.636719,7.808594 C 4.582031,7.753906 4.621094,7.519531 4.621094,7.519531 c 0,0 -0.859375,-0.449219 -1.792969,-0.722656 C 2.714844,6.765625 2.773438,6.527344 2.886719,6.4375 L 2.847656,6.1875 C 2.828125,6.058594 3.039062,5.445312 3.25,5.390625 3.457031,5.339844 3.230469,5.753906 3.230469,5.753906 l -0.210938,0.125 c 0,0 0.25,0.289063 0.304688,0.289063 0.058593,0 0.152343,-0.144531 0.152343,-0.144531 L 3.210938,5.84375 3.457031,5.734375 3.476562,5.640625 3.515625,5.625 3.925781,5.007812 C 4.207031,4.890625 4.558594,4.746094 4.601562,4.726562 4.675781,4.6875 5.210938,4.382812 5.304688,4.3125 5.402344,4.238281 5.609375,4.257812 5.6875,4.257812 5.761719,4.257812 5.878906,4.21875 5.898438,4.023438 5.914062,3.824219 5.992188,3.789062 6.046875,3.84375 6.105469,3.894531 5.992188,3.984375 6.125,4.023438 6.257812,4.058594 6.371094,4.148438 6.46875,4.058594 6.539062,3.992188 6.445312,3.917969 6.382812,3.859375 l 1.058594,0 L 7.554688,3.535156 7.304688,3.5 6.390625,3.410156 l 0,-0.109375 L 6.316406,3.3125 C 6.417969,2.769531 7.003906,2.859375 6.5625,2.542969 6.535156,2.523438 6.148438,3.152344 6.050781,3.140625 5.871094,3.117188 5.640625,3.117188 5.59375,3.175781 5.527344,3.253906 5.738281,2.910156 5.917969,2.808594 5.703125,2.871094 5.3125,2.675781 4.613281,3.167969 4.375,3.335938 3.78125,4.015625 3.535156,4.277344 2.503906,5.496094 2.421875,6.539062 2.421875,6.585938 c 0,0.089843 0.21875,0.140624 0.234375,0.25 0.019531,0.105468 -0.359375,0.46875 -0.359375,0.648437 0,0.082031 -0.191406,0.980469 0.226563,2.109375 0.371093,1.070312 1.089843,2.011719 1.183593,2.070312 l 0.265625,-0.140624 c 0,0 -0.4375,-0.773438 -0.457031,-0.847657 C 3.496094,10.605469 4.011719,9.558594 4.257812,9.59375 4.503906,9.628906 4.449219,9.703125 4.601562,9.613281 4.753906,9.523438 4.847656,8.78125 5.019531,8.710938 5.191406,8.636719 5.378906,8.546875 5.363281,8.367188 5.34375,8.1875 4.695312,7.863281 4.636719,7.808594 M 8.773438,2.507812 8.257812,2.328125 8.351562,2.617188 8.773438,2.507812 M 6.847656,3.175781 c 0.058594,0 1.199219,-0.757812 1.085938,-0.777343 -0.113282,-0.015626 -0.132813,0 -0.4375,-0.035157 C 7.191406,2.328125 6.867188,2.796875 6.789062,2.867188 6.714844,2.941406 6.738281,3.175781 6.847656,3.175781 m 5.242188,5.4375 0.148437,-0.191406 -0.148437,-0.050781 -0.109375,0.136718 -0.128907,0.191407 0.113282,0.050781 0.125,-0.136719 m 0.648437,0.625 -0.03906,-0.277343 -0.238281,0 -0.01953,0.207031 -0.21875,-0.035157 -0.05469,-0.226562 -0.113281,-0.066406 -0.128907,0.15625 -0.128906,-0.035156 -0.03906,0.121093 0.148438,0.035157 0,1.128906 0.523438,0.125 c -0.01172,0.01953 -0.01953,0.03906 -0.02344,0.04687 -0.03906,0.121093 0.144531,0.175781 0.277344,0.121093 0.04687,-0.01562 0.347656,-0.132812 0.441406,-0.359374 0.132812,-0.316407 0.21875,-0.773438 0.242188,-0.917969 L 13.3086,9.132807 12.941412,9.273433 12.734381,9.238276 l 0.0039,0 m -0.1875,-4.625 C 11.707031,3.335938 9.683594,2.5 9.683594,2.5 L 9.160156,2.773438 9.085938,2.652344 8.902344,2.582031 l 0,0.15625 L 9.070312,2.878906 8.957031,2.929688 8.535156,2.964844 7.578125,3.484375 7.667969,3.902344 7.558594,3.9375 7.503906,4.023438 l 0.3125,0.46875 0.015625,0.15625 -0.253906,0.054687 0,0.3125 L 7.429688,5.050781 7.449219,5.292969 6.191406,6.160156 6.230469,6.648438 C 6.324219,6.769531 7.042969,7.5 7.042969,7.5 c 0,0 0.828125,0.035156 1.011719,-0.070312 0.1875,-0.105469 0.054687,0.105468 0.109374,0.15625 0.058594,0.050781 0.078126,0.417968 0.128907,0.453124 0.058593,0.035157 0,0.242188 0.078125,0.3125 0.070312,0.070313 0.070312,0.902344 0.070312,0.902344 0,0 0.445313,0.746094 0.445313,0.941406 0,0.1875 -0.019531,0.171876 0.332031,0.15625 0.347656,-0.01953 0.421875,-0.15625 0.496094,-0.210937 C 9.789062,10.089844 9.789062,9.96875 9.863281,9.863281 9.9375,9.757812 10.066406,9.359375 10.230469,9.21875 10.398438,9.082031 10.839844,8.976562 10.875,8.734375 10.914062,8.488281 11.078125,8.300781 11.078125,8.300781 l 0.796875,-0.84375 -0.01953,0.113281 -0.01953,0.433594 0.238281,-0.085937 -0.01953,-0.46875 -0.08203,-0.09375 0.0078,-0.011719 c 0,0 -0.05469,-0.105469 -0.125,-0.105469 -0.07422,0 -0.515625,0.105469 -0.59375,0.085938 -0.07031,-0.015625 -0.382813,-0.851563 -0.441407,-0.882813 -0.05469,-0.035156 -0.40625,-0.609375 -0.40625,-0.609375 0,0 0.8125,0.972657 0.941407,1.355469 0.07422,0.222656 0.355469,0.015625 0.585937,-0.21875 l 0.0625,0.148438 0.144532,-0.035157 -0.01953,-0.171875 0.167969,0 0,0.257813 -0.05469,0.140625 -0.01953,0.226562 0.148438,0.140625 0.07031,-0.125 0.242188,-0.226562 0.273437,-0.136719 0.07422,0.136719 0.03906,0.195312 -0.07422,0.207031 -0.148438,0.121094 -0.07422,0.3125 0,0.15625 L 12.609375,8.214844 12.589844,7.882812 12.351562,7.902344 12.242188,8.195312 12.40625,8.4375 12.792969,8.492188 13.105469,8.195312 13.144531,7.625 13.28125,7.4375 c 0.09375,0.234375 0.15625,0.480469 0.15625,0.707031 0,0.25 0.199219,-0.125 0.101562,-0.886719 0,-0.00391 -0.152343,-1.808593 -0.988281,-2.644531 z m -3.683593,0.75 -0.996094,-0.035156 0.421875,-0.347656 0.222656,0 0.351563,0.242187 0,0.140625 m 1.214843,-0.121093 0,0.15625 -0.421875,0 L 9.695312,5.5 9.4375,5.535156 9.417969,5.621094 9.234375,5.585938 8.902344,5.519531 8.957031,5.429688 9.011719,5.328125 l 0.1875,-0.191406 0.074219,0.136719 0.277343,-0.015626 0.144531,-0.15625 0.574219,0.105469 -0.1875,0.035157 m 0.03516,-0.226563 -0.21875,0.035156 -0.035157,-0.15625 0.273438,-0.035156 0.03906,-0.160156 0.203125,0.210937 -0.261718,0.105469 m 1.074218,5.402344 -0.132812,0.105469 0.01953,0.261718 0.164063,0 0,-0.226562 0.148437,-0.191406 0,-0.398438 -0.08984,-0.019531 -0.109375,0.46875 M 9.953125,9.898438 c 0,0 -0.128906,0.035156 0.019531,0.085937 0.144532,0.054687 0.738282,-0.851563 0.738282,-0.851563 l -0.5,0.3125 -0.257813,0.453126 M 8.949219,13.230469 8.839844,13.125 8.621094,13.08984 8.582031,13.195308 8.289062,13.160148 8.269531,13.019523 l -0.222656,0 -0.238281,0.140625 -0.425782,0 L 7.347656,13.054688 6.667969,12.984375 6.554688,13.089844 6.277344,13.019531 6.242188,12.773438 6.113281,12.753906 5.964844,13.019531 5.46875,13 c 0.089844,0.04297 0.832031,0.488281 1.972656,0.578125 1.507813,0.121094 2.226563,-0.242187 2.226563,-0.242187 L 9.613281,13.28125 Z"
         id="path18"
         inkscape:connector-curvature="0" />
    </g>
  </g>
</svg>

<svg xmlns="http://www.w3.org/2000/svg" viewBox="0 0 16 16">
 <path d="m 7.998 2 c -1.591 0 -3.092 0.625 -4.229 1.759 -1.141 1.137 -1.769 2.638 -1.769 4.23 0 3.313 2.69 6.01 5.998 6.01 3.312 0 6 -2.699 6 -6.01 0 -3.301 -2.69 -5.989 -6 -5.989 m 0 0.246 c 3.171 0 5.756 2.577 5.756 5.742 0 3.18 -2.584 5.765 -5.756 5.765 -3.168 0 -5.748 -2.585 -5.748 -5.765 0 -1.524 0.599 -2.964 1.69 -4.052 1.091 -1.092 2.535 -1.69 4.058 -1.69 z" style="fill:#78b2a3"/>
 <g transform="matrix(0.97000322,0,0,0.97030958,0.3214395,0.31711933)">
  <g>
   <path d="m 6.01 2.777 c -0.031 0 -0.063 0.012 -0.094 0.031 0.074 -0.023 0.109 -0.031 0.094 -0.031 m 1.848 0.359 0.016 -0.27 -0.285 0.02 l 0.039 0.25 0.23 0 m -3.223 4.672 c -0.055 -0.055 -0.016 -0.289 -0.016 -0.289 c 0 0 -0.859 -0.449 -1.793 -0.723 c -0.113 -0.031 -0.055 -0.27 0.059 -0.359 l -0.039 -0.25 c -0.02 -0.129 0.191 -0.742 0.402 -0.797 0.207 -0.051 -0.02 0.363 -0.02 0.363 l -0.211 0.125 c 0 0 0.25 0.289 0.305 0.289 0.059 0 0.152 -0.145 0.152 -0.145 l -0.266 -0.18 0.246 -0.109 0.02 -0.094 0.039 -0.016 0.41 -0.617 c 0.281 -0.117 0.633 -0.262 0.676 -0.281 0.074 -0.039 0.609 -0.344 0.703 -0.414 0.098 -0.074 0.305 -0.055 0.383 -0.055 0.074 0 0.191 -0.039 0.211 -0.234 0.016 -0.199 0.094 -0.234 0.148 -0.18 0.059 0.051 -0.055 0.141 0.078 0.18 0.133 0.035 0.246 0.125 0.344 0.035 0.07 -0.066 -0.023 -0.141 -0.086 -0.199 l 1.059 0 l 0.113 -0.324 -0.25 -0.035 -0.914 -0.09 l 0 -0.109 l -0.074 0.012 c 0.102 -0.543 0.688 -0.453 0.246 -0.77 -0.027 -0.02 -0.414 0.609 -0.512 0.598 -0.18 -0.023 -0.41 -0.023 -0.457 0.035 -0.066 0.078 0.145 -0.266 0.324 -0.367 -0.215 0.063 -0.605 -0.133 -1.305 0.359 -0.238 0.168 -0.832 0.848 -1.078 1.109 -1.031 1.219 -1.113 2.262 -1.113 2.309 c 0 0.09 0.219 0.141 0.234 0.25 0.02 0.105 -0.359 0.469 -0.359 0.648 0 0.082 -0.191 0.98 0.227 2.109 0.371 1.07 1.09 2.01 1.184 2.07 l 0.266 -0.141 c 0 0 -0.438 -0.773 -0.457 -0.848 c -0.02 -0.07 0.496 -1.117 0.742 -1.082 0.246 0.035 0.191 0.109 0.344 0.02 0.152 -0.09 0.246 -0.832 0.418 -0.902 0.172 -0.074 0.359 -0.164 0.344 -0.344 -0.02 -0.18 -0.668 -0.504 -0.727 -0.559 m 4.137 -5.301 -0.516 -0.18 0.094 0.289 0.422 -0.109 m -1.926 0.668 c 0.059 0 1.199 -0.758 1.086 -0.777 -0.113 -0.016 -0.133 0 -0.438 -0.035 c -0.305 -0.035 -0.629 0.434 -0.707 0.504 -0.074 0.074 -0.051 0.309 0.059 0.309 m 5.242 5.438 0.148 -0.191 -0.148 -0.051 -0.109 0.137 -0.129 0.191 0.113 0.051 0.125 -0.137 m 0.648 0.625 -0.039 -0.277 -0.238 0 -0.02 0.207 -0.219 -0.035 -0.055 -0.227 -0.113 -0.066 -0.129 0.156 -0.129 -0.035 -0.039 0.121 0.148 0.035 0 1.129 0.523 0.125 c -0.012 0.02 -0.02 0.039 -0.023 0.047 -0.039 0.121 0.145 0.176 0.277 0.121 0.047 -0.016 0.348 -0.133 0.441 -0.359 0.133 -0.316 0.219 -0.773 0.242 -0.918 l -0.059 -0.129 -0.367 0.141 -0.207 -0.035 l 0.004 0 m -0.188 -4.625 c -0.844 -1.277 -2.867 -2.113 -2.867 -2.113 l -0.523 0.273 -0.074 -0.121 -0.184 -0.07 l 0 0.156 l 0.168 0.141 -0.113 0.051 -0.422 0.035 -0.957 0.52 0.09 0.418 -0.109 0.035 -0.055 0.086 l 0.313 0.469 0.016 0.156 -0.254 0.055 0 0.313 l -0.148 0.035 0.02 0.242 -1.258 0.867 0.039 0.488 c 0.094 0.121 0.813 0.852 0.813 0.852 c 0 0 0.828 0.035 1.012 -0.07 0.188 -0.105 0.055 0.105 0.109 0.156 0.059 0.051 0.078 0.418 0.129 0.453 0.059 0.035 0 0.242 0.078 0.313 0.07 0.07 0.07 0.902 0.07 0.902 0 0 0.445 0.746 0.445 0.941 0 0.188 -0.02 0.172 0.332 0.156 0.348 -0.02 0.422 -0.156 0.496 -0.211 c 0.074 -0.051 0.074 -0.172 0.148 -0.277 0.074 -0.105 0.203 -0.504 0.367 -0.645 0.168 -0.137 0.609 -0.242 0.645 -0.484 0.039 -0.246 0.203 -0.434 0.203 -0.434 l 0.797 -0.844 -0.02 0.113 -0.02 0.434 0.238 -0.086 -0.02 -0.469 -0.082 -0.094 0.008 -0.012 c 0 0 -0.055 -0.105 -0.125 -0.105 -0.074 0 -0.516 0.105 -0.594 0.086 -0.07 -0.016 -0.383 -0.852 -0.441 -0.883 -0.055 -0.035 -0.406 -0.609 -0.406 -0.609 0 0 0.813 0.973 0.941 1.355 0.074 0.223 0.355 0.016 0.586 -0.219 l 0.063 0.148 0.145 -0.035 -0.02 -0.172 0.168 0 0 0.258 -0.055 0.141 -0.02 0.227 0.148 0.141 0.07 -0.125 0.242 -0.227 0.273 -0.137 0.074 0.137 0.039 0.195 -0.074 0.207 -0.148 0.121 -0.074 0.313 0 0.156 l -0.164 -0.102 -0.02 -0.332 -0.238 0.02 -0.109 0.293 0.164 0.242 0.387 0.055 0.313 -0.297 0.039 -0.57 0.137 -0.188 c 0.094 0.234 0.156 0.48 0.156 0.707 0 0.25 0.199 -0.125 0.102 -0.887 0 -0.004 -0.152 -1.809 -0.988 -2.645 z m -3.684 0.75 -0.996 -0.035 0.422 -0.348 0.223 0 0.352 0.242 0 0.141 m 1.215 -0.121 0 0.156 -0.422 0 l 0.035 0.102 -0.258 0.035 -0.02 0.086 -0.184 -0.035 -0.332 -0.066 0.055 -0.09 0.055 -0.102 l 0.188 -0.191 0.074 0.137 0.277 -0.016 0.145 -0.156 0.574 0.105 -0.188 0.035 m 0.035 -0.227 -0.219 0.035 -0.035 -0.156 0.273 -0.035 0.039 -0.16 0.203 0.211 -0.262 0.105 m 1.074 5.402 -0.133 0.105 0.02 0.262 0.164 0 0 -0.227 0.148 -0.191 0 -0.398 -0.09 -0.02 -0.109 0.469 m -1.238 -0.52 c 0 0 -0.129 0.035 0.02 0.086 0.145 0.055 0.738 -0.852 0.738 -0.852 l -0.5 0.313 -0.258 0.453 m -1 3.332 -0.109 -0.105 -0.219 -0.035 -0.039 0.105 -0.293 -0.035 -0.02 -0.141 l -0.223 0 -0.238 0.141 -0.426 0 l -0.035 -0.105 -0.68 -0.07 -0.113 0.105 -0.277 -0.07 -0.035 -0.246 -0.129 -0.02 -0.148 0.266 -0.496 -0.02 c 0.09 0.043 0.832 0.488 1.973 0.578 1.508 0.121 2.227 -0.242 2.227 -0.242 l -0.055 -0.055" style="fill:#78b2a3"/>
  </g>
 </g>
</svg>
